img/car.svg

<svg width="50" height="41" viewBox="0 0 50 41" fill="none" xmlns="http://www.w3.org/2000/svg">
<path d="M46.2963 31.4815H3.7037C1.65926 31.4815 0 29.8222 0 27.7778V18.5185C0 16.4741 1.65926 14.8148 3.7037 14.8148H5.55556C5.55556 14.8148 8.29444 6.48148 9.1037 3.7037C9.91296 0.925926 10.763 0 12.8093 0H37.1907C39.2352 0 39.8537 0.577778 40.8944 3.7037C41.9352 6.82963 44.4444 14.8148 44.4444 14.8148H46.2963C48.3407 14.8148 50 16.4741 50 18.5185V27.7778C50 29.8222 48.3407 31.4815 46.2963 31.4815ZM12.963 27.7778H37.037V25.9259H12.963V27.7778ZM37.037 14.8148C37.037 12.7704 35.3778 10.8796 33.3333 10.8796C31.2889 10.8796 29.6296 12.7704 29.6296 14.8148C29.6296 14.863 37.037 14.863 37.037 14.8148ZM12.963 24.0741H37.037V22.2222H12.963V24.0741ZM12.963 20.3704H37.037V18.5185H12.963V20.3704ZM3.81852 22.2222C3.81852 24.2667 5.47778 25.9259 7.52222 25.9259C9.56667 25.9259 11.2259 24.2667 11.2259 22.2222C11.2259 20.1778 9.56667 18.5185 7.52222 18.5185C5.47778 18.5185 3.81852 20.1778 3.81852 22.2222ZM39.0426 3.7037C38.5796 2.42963 38.2148 1.85185 37.1907 1.85185H25.9259V3.7037H26.8519C27.363 3.7037 27.7778 4.11852 27.7778 4.62963C27.7778 5.14074 27.363 5.55556 26.8519 5.55556H23.1481C22.637 5.55556 22.2222 5.14074 22.2222 4.62963C22.2222 4.11852 22.637 3.7037 23.1481 3.7037H24.0741V1.85185H12.8093C11.7852 1.85185 11.4185 2.08333 10.9574 3.7037C10.4926 5.32407 7.40741 14.8148 7.40741 14.8148H28.6296C28.6722 12.2889 30.7222 9.92037 33.25 9.92037C35.7778 9.92037 37.8278 12.287 37.8722 14.8148H42.5926C42.5926 14.8148 39.5056 4.97778 39.0426 3.7037ZM42.4778 18.6333C40.4333 18.6333 38.7741 20.2926 38.7741 22.337C38.7741 24.3815 40.4333 26.0407 42.4778 26.0407C44.5222 26.0407 46.1815 24.3815 46.1815 22.337C46.1815 20.2926 44.5222 18.6333 42.4778 18.6333ZM9.25926 37.963C9.25926 39.4963 8.01481 40.7407 6.48148 40.7407C4.94815 40.7407 3.7037 39.4963 3.7037 37.963V33.3333H9.25926V37.963ZM46.2963 37.963C46.2963 39.4963 45.0519 40.7407 43.5185 40.7407C41.9852 40.7407 40.7407 39.4963 40.7407 37.963V33.3333H46.2963V37.963Z" fill="white"/>
</svg>

<svg width="50" height="41" viewBox="0 0 50 41" fill="none" xmlns="http://www.w3.org/2000/svg"><path d="M46.296 31.482H3.704A3.705 3.705 0 0 1 0 27.777v-9.26a3.705 3.705 0 0 1 3.704-3.703h1.852S8.294 6.48 9.104 3.704C9.913.926 10.763 0 12.809 0h24.382c2.044 0 2.663.578 3.703 3.704 1.041 3.126 3.55 11.11 3.55 11.11h1.852A3.705 3.705 0 0 1 50 18.519v9.26a3.705 3.705 0 0 1-3.704 3.704zm-33.333-3.704h24.074v-1.852H12.963v1.852zm24.074-12.963c0-2.045-1.66-3.935-3.704-3.935-2.044 0-3.703 1.89-3.703 3.935 0 .048 7.407.048 7.407 0zm-24.074 9.26h24.074v-1.853H12.963v1.852zm0-3.705h24.074v-1.852H12.963v1.852zm-9.144 1.852a3.705 3.705 0 0 0 3.703 3.704 3.705 3.705 0 0 0 3.704-3.704 3.705 3.705 0 0 0-3.704-3.704 3.705 3.705 0 0 0-3.703 3.704zM39.043 3.704c-.463-1.274-.828-1.852-1.852-1.852H25.926v1.852h.926a.926.926 0 0 1 0 1.852h-3.704a.926.926 0 0 1 0-1.852h.926V1.852H12.81c-1.024 0-1.39.231-1.852 1.852-.464 1.62-3.55 11.11-3.55 11.11H28.63c.042-2.525 2.092-4.894 4.62-4.894s4.578 2.367 4.622 4.895h4.72s-3.086-9.837-3.55-11.111zm3.435 14.93a3.705 3.705 0 0 0-3.704 3.703 3.705 3.705 0 0 0 3.704 3.704 3.705 3.705 0 0 0 3.703-3.704 3.705 3.705 0 0 0-3.703-3.704zM9.259 37.962a2.779 2.779 0 0 1-5.555 0v-4.63h5.555v4.63zm37.037 0a2.779 2.779 0 0 1-5.555 0v-4.63h5.555v4.63z" fill="#fff"/></svg>
